img/icons/phone.svg

<svg width="25" height="24" viewBox="0 0 25 24" fill="none" xmlns="http://www.w3.org/2000/svg">
<g id="IC_phone">
<path id="Vector" d="M22.4999 16.9201V19.9201C22.5011 20.1986 22.444 20.4743 22.3325 20.7294C22.2209 20.9846 22.0572 21.2137 21.852 21.402C21.6468 21.5902 21.4045 21.7336 21.1407 21.8228C20.8769 21.912 20.5973 21.9452 20.3199 21.9201C17.2428 21.5857 14.2869 20.5342 11.6899 18.8501C9.27376 17.3148 7.22527 15.2663 5.68993 12.8501C3.99991 10.2413 2.94818 7.27109 2.61993 4.1801C2.59494 3.90356 2.62781 3.62486 2.71643 3.36172C2.80506 3.09859 2.9475 2.85679 3.1347 2.65172C3.32189 2.44665 3.54974 2.28281 3.80372 2.17062C4.05771 2.05843 4.33227 2.00036 4.60993 2.0001H7.60994C8.09524 1.99532 8.56573 2.16718 8.9337 2.48363C9.30167 2.80008 9.54201 3.23954 9.60994 3.7201C9.73656 4.68016 9.97139 5.62282 10.3099 6.5301C10.4445 6.88802 10.4736 7.27701 10.3938 7.65098C10.3141 8.02494 10.1288 8.36821 9.85994 8.6401L8.58994 9.9101C10.0135 12.4136 12.0864 14.4865 14.5899 15.9101L15.8599 14.6401C16.1318 14.3712 16.4751 14.1859 16.8491 14.1062C17.223 14.0264 17.612 14.0556 17.9699 14.1901C18.8772 14.5286 19.8199 14.7635 20.7799 14.8901C21.2657 14.9586 21.7093 15.2033 22.0265 15.5776C22.3436 15.9519 22.5121 16.4297 22.4999 16.9201Z" fill="#15B2F5"/>
</g>
</svg>

<svg width="25" height="24" viewBox="0 0 25 24" fill="none" xmlns="http://www.w3.org/2000/svg"><path d="M22.5 16.92v3a2 2 0 01-2.18 2 19.791 19.791 0 01-8.63-3.07 19.5 19.5 0 01-6-6 19.79 19.79 0 01-3.07-8.67A2 2 0 014.61 2h3a2 2 0 012 1.72c.127.96.361 1.903.7 2.81a2 2 0 01-.45 2.11L8.59 9.91a16 16 0 006 6l1.27-1.27a2 2 0 012.11-.45c.907.339 1.85.574 2.81.7a2 2 0 011.72 2.03z" fill="#15B2F5"/></svg>
